components/Common/Svg/svgs/headset.svg

<svg width="32" height="36" viewBox="0 0 32 36" fill="none" xmlns="http://www.w3.org/2000/svg">
<path d="M16.0061 0.793701C7.6219 0.793701 0.800781 7.61482 0.800781 15.9991C0.800781 16.9282 0.800781 24.1159 0.800781 24.2437C0.800781 25.9206 2.16501 27.2848 3.84185 27.2848H5.0299C5.44835 28.4646 6.5751 29.3122 7.89661 29.3122C9.57346 29.3122 10.9377 27.948 10.9377 26.2711V18.0264C10.9377 16.3496 9.57346 14.9854 7.89661 14.9854C6.5751 14.9854 5.44835 15.8329 5.0299 17.0127H3.84185C3.48645 17.0127 3.14545 17.0746 2.82816 17.1871V15.9991C2.82816 8.73272 8.7398 2.82108 16.0061 2.82108C23.2725 2.82108 29.1841 8.73272 29.1841 15.9991V17.1871C28.8668 17.0746 28.5258 17.0127 28.1704 17.0127H26.9824C26.5639 15.8329 25.4372 14.9854 24.1157 14.9854C22.4388 14.9854 21.0746 16.3496 21.0746 18.0264V26.2711C21.0746 27.948 22.4388 29.3122 24.1157 29.3122C24.4225 29.3122 24.7188 29.2661 24.9983 29.1812C24.6191 30.4288 23.4583 31.3396 22.0883 31.3396H18.8729C18.4544 30.1598 17.3277 29.3122 16.0061 29.3122C14.3293 29.3122 12.9651 30.6764 12.9651 32.3533C12.9651 34.0301 14.3293 35.3943 16.0061 35.3943C17.3277 35.3943 18.4544 34.5468 18.8729 33.367H22.0883C24.883 33.367 27.1567 31.0932 27.1567 28.2985V27.2848H28.1704C29.8473 27.2848 31.2115 25.9206 31.2115 24.2437C31.2115 24.1178 31.2115 16.9275 31.2115 15.9991C31.2115 7.61482 24.3904 0.793701 16.0061 0.793701ZM6.88292 18.0264C6.88292 17.4675 7.33767 17.0127 7.89661 17.0127C8.45556 17.0127 8.91031 17.4675 8.91031 18.0264V26.2711C8.91031 26.8301 8.45556 27.2848 7.89661 27.2848C7.33767 27.2848 6.88292 26.8301 6.88292 26.2711V18.0264ZM3.84185 19.0401H4.85554V25.2574H3.84185C3.2829 25.2574 2.82816 24.8027 2.82816 24.2437V20.0538C2.82816 19.4949 3.2829 19.0401 3.84185 19.0401ZM16.0061 33.367C15.4472 33.367 14.9924 32.9122 14.9924 32.3533C14.9924 31.7943 15.4472 31.3396 16.0061 31.3396C16.5651 31.3396 17.0198 31.7943 17.0198 32.3533C17.0198 32.9122 16.5651 33.367 16.0061 33.367ZM25.1294 26.2711C25.1294 26.8301 24.6746 27.2848 24.1157 27.2848C23.5567 27.2848 23.102 26.8301 23.102 26.2711V18.0264C23.102 17.4675 23.5567 17.0127 24.1157 17.0127C24.6746 17.0127 25.1294 17.4675 25.1294 18.0264V26.2711ZM29.1841 24.2437C29.1841 24.8027 28.7294 25.2574 28.1704 25.2574H27.1567V19.0401H28.1704C28.7294 19.0401 29.1841 19.4949 29.1841 20.0538V24.2437Z" fill="#171717"/>
</svg>

<svg width="32" height="36" viewBox="0 0 32 36" fill="none" xmlns="http://www.w3.org/2000/svg"><path d="M16.006.794C7.622.794.801 7.614.801 15.999v8.245a3.045 3.045 0 0 0 3.04 3.04H5.03a3.046 3.046 0 0 0 2.867 2.028 3.045 3.045 0 0 0 3.04-3.04v-8.246a3.045 3.045 0 0 0-3.04-3.04 3.046 3.046 0 0 0-2.867 2.027H3.842c-.356 0-.697.062-1.014.174V16c0-7.266 5.912-13.178 13.178-13.178 7.267 0 13.178 5.912 13.178 13.178v1.188a3.027 3.027 0 0 0-1.014-.174h-1.188a3.046 3.046 0 0 0-2.866-2.028 3.044 3.044 0 0 0-3.041 3.041v8.245a3.045 3.045 0 0 0 3.923 2.91 3.046 3.046 0 0 1-2.91 2.159h-3.215a3.046 3.046 0 0 0-2.867-2.028 3.044 3.044 0 0 0-3.04 3.041 3.044 3.044 0 0 0 3.04 3.041 3.046 3.046 0 0 0 2.867-2.027h3.215a5.074 5.074 0 0 0 5.069-5.068v-1.014h1.013a3.045 3.045 0 0 0 3.041-3.041v-8.245c0-8.384-6.82-15.205-15.205-15.205ZM6.883 18.026a1.015 1.015 0 0 1 2.027 0v8.245a1.015 1.015 0 0 1-2.027 0v-8.245ZM3.842 19.04h1.014v6.217H3.842a1.015 1.015 0 0 1-1.014-1.013v-4.19c0-.56.455-1.014 1.014-1.014Zm12.164 14.327a1.015 1.015 0 0 1 0-2.027 1.015 1.015 0 0 1 0 2.027Zm9.123-7.096a1.015 1.015 0 0 1-2.027 0v-8.245a1.015 1.015 0 0 1 2.027 0v8.245Zm4.055-2.027c0 .559-.455 1.013-1.014 1.013h-1.013V19.04h1.013c.56 0 1.014.455 1.014 1.014v4.19Z" fill="#171717"/></svg>
